!!!OTL: DAS LEBEN GLEICHET DER BLUMEN
!!!ARE: Europa, Mitteleuropa, Deutschland
!!!SCT: F0747
!!!YEM: Copyright 1995, estate of Helmut Schaffrath.
**kern
*ICvox
*Ivox
*M6/8
*k[f#c#g#]
*A:
{8a
=1
8.cc#
16b
8cc#
8a
8b
8cc#
=2
4dd
8b
4b}
{8g#
=3
8g#
8f#
8g#
8a
8e
8b
=4
4cc#
4.r}
{8a
=5
8.ee
16ff#
8ee
8.cc#
16dd
8ee
=6
8.dd
16cc#
8dd
4b}
{16a
16cc#
=7
8.ee
16ff#
8ee
8.cc#
16dd
8ee
=8
8.dd
16cc#
8dd
4b}
{8dd
=9
8.cc#
16b
8a
8.b
16a
8g#
=10
4.a}
{4.f#
=11
8e
8a
8cc#
8.b
16a
8g#
=12
4a
4.r}
==
!!!AGN: Geselligkeits -, Trink - Lied
!!!ONB: ESAC (Essen Associative Code) Database: FINK
!!!AMT: compound duple
!!!AIN: vox
!!!EED: Helmut Schaffrath
!!!EEV: 1.0
*-
